icons/lines/security-user.svg

<svg xmlns="http://www.w3.org/2000/svg" width="24" height="24" viewBox="0 0 24 24" fill="none" stroke="currentColor" stroke-width="2" stroke-linecap="round" stroke-linejoin="round" >
  <path d="M10.4901 2.23006L5.50015 4.10005C4.35015 4.53005 3.41016 5.89004 3.41016 7.12004V14.55C3.41016 15.73 4.19017 17.28 5.14017 17.99L9.44016 21.2001C10.8502 22.2601 13.1701 22.2601 14.5801 21.2001L18.8802 17.99C19.8302 17.28 20.6101 15.73 20.6101 14.55V7.12004C20.6101 5.89004 19.6701 4.53005 18.5201 4.10005L13.5302 2.23006C12.6802 1.92006 11.3201 1.92006 10.4901 2.23006Z"/>
  <path d="M12.0002 10.92C11.9602 10.92 11.9102 10.92 11.8702 10.92C10.9302 10.89 10.1802 10.11 10.1802 9.16003C10.1802 8.19003 10.9702 7.40002 11.9402 7.40002C12.9102 7.40002 13.7002 8.19003 13.7002 9.16003C13.6902 10.12 12.9402 10.89 12.0002 10.92Z"/>
  <path d="M10.01 13.7201C9.05004 14.3601 9.05004 15.4101 10.01 16.0501C11.1 16.7801 12.89 16.7801 13.98 16.0501C14.94 15.4101 14.94 14.3601 13.98 13.7201C12.9 12.9901 11.11 12.9901 10.01 13.7201Z"/>
  </svg>

<svg xmlns="http://www.w3.org/2000/svg" width="24" height="24" viewBox="0 0 24 24" fill="none" stroke="currentColor" stroke-width="2" stroke-linecap="round" stroke-linejoin="round">
  <path d="M10.01 13.72c-.96.64-.96 1.69 0 2.33 1.09.73 2.88.73 3.97 0 .96-.64.96-1.69 0-2.33-1.08-.73-2.87-.73-3.97 0" />
  <path d="M11.87 10.92a1.756 1.756 0 1 1 .13 0z" />
  <path d="M5.5 4.1c-1.15.43-2.09 1.79-2.09 3.02v7.43c0 1.18.78 2.73 1.73 3.44l4.3 3.21c1.41 1.06 3.73 1.06 5.14 0l4.3-3.21c.95-.71 1.73-2.26 1.73-3.44V7.12c0-1.23-.94-2.59-2.09-3.02l-4.99-1.87c-.85-.31-2.21-.31-3.04 0z" />
</svg>
